X: 833
T: Rochester Schottische
B: jims roots
M:4/4
L:1/8
R: reel
Q: 1/4=100
K:Dmaj
V:1 
%Z: skylos
%S: <a href="http://thesession.org/tunes/15026#setting27931" rel="nofollow">http://thesession.org/tunes/15026#setting27931</a>
|: (f2 | "D"f)ded d2BA | "D"dBAG FGf2- | "D"fded d2BA | "A"A4 A2 f2- |
"D"fded d2Bc | "D"dBAG FDFG | "D"ABAG "A"FDEC | "D" D4-D2 :|
|: A2- | "D" ABAG FDFD | "G" EDEF G2 B2 | "D" ABAG F2 DE- | "G"EDFDG2 BB |
"D"ABAG F2 D(E | "G"E)DEF G2B2 |[1 "D"ABAG "A" FDEC | "D"D4-D2:|
[2 "D"ABAF "A"EDCA, | "D" D4-D2||
% abcbook-tune_id 6298c27902bae34fd90bc5cb


% abcbook-boost 0
% abcbook-tablature 
% abcbook-transpose 
% abcbook-lastupdated 1654178427008
% abcbook-soundfonts 
% abcbook-repeats 1


